X:5622
T:Gallegada Vaqueira
R:Gallegada
C:Tradicional
S:Msica Tradicional Asturiana, (C) Tello & Tito. Asturies, 2001.
S:http://pagina.de/MusTradAst <telloytito@asturies.org>
A:Asturies
Z:Danzas y Bailes I
M:6/8
L:1/8
Q:3/8=150
K:Eb
B2 B|B2 e e2 e|d3 d3-|d6 :|
|z3 c2 d|e2 e e2 e|d2 d c2 d|e2 e e2 e|d2 d B2 =B|B2 =B _B3|A6-|
|A3 z3|A2 A A2 _d|_d2 =B B2 _B-|_B6|
